docs/icons/nuxtjs.svg

<svg xmlns="http://www.w3.org/2000/svg" xmlns:xlink="http://www.w3.org/1999/xlink" width="30" height="30" fill="none" xmlns:v="https://vecta.io/nano"><defs><path id="A" d="M0 0h30v30H0z"/><path id="B" d="M0 0h22v14.73H0z"/></defs><g transform="matrix(1 0 0 1 0 0)"><mask id="D" fill="#fff"><use xlink:href="#A"/></mask><g mask="url(#D)"><g transform="matrix(1 0 0 1 4 7.63477)"><mask id="D" fill="#fff"><use xlink:href="#B"/></mask><g mask="url(#D)" fill-rule="evenodd"><path transform="matrix(1 0 0 1 0 0)" d="M6.93.79L.22 12.35c-.62 1.06.15 2.38 1.38 2.38h5.25c-.53-.46-.72-1.26-.33-1.94l5.09-8.72L9.71.79C9.09-.26 7.55-.26 6.93.79z" fill="#80eec0"/><path transform="matrix(1 0 0 1 8.226084 2.678239)" d="M.18 10.1c-.51.87.13 1.95 1.15 1.95h11.12c1.02 0 1.65-1.08 1.14-1.95L8.03.65c-.51-.87-1.78-.87-2.29 0L.18 10.1z" fill="#00dc82"/></g></g></g></g></svg>

<svg xmlns="http://www.w3.org/2000/svg" xmlns:xlink="http://www.w3.org/1999/xlink" width="30" height="30" viewBox="0 0 30 30" fill="none"><defs><rect id="path_0" x="0" y="0" width="30" height="30" /><rect id="path_1" x="0" y="0" width="22" height="14.730459686121279" /></defs><g opacity="1" transform="translate(0 0)  rotate(0 15 15)"><mask id="bg-mask" fill="white"><use xlink:href="#path_0"></use></mask><g mask="url(#bg-mask)" ><path id="矩形 1" fill-rule="evenodd" transform="translate(0 0)  rotate(0 15 15)" opacity="1" d="M0,30L30,30L30,0L0,0L0,30Z " /><g opacity="1" transform="translate(3.9999999999999574 7.634770156939354)  rotate(0 11 7.365229843060639)"><mask id="bg-mask" fill="white"><use xlink:href="#path_1"></use></mask><g mask="url(#bg-mask)" ><path id="路径 7" fill-rule="evenodd" style="fill:#80EEC0" transform="translate(0 0)  rotate(0 5.806406962619008 7.365229843060639)" opacity="1" d="M6.93,0.79L0.22,12.35C-0.4,13.41 0.37,14.73 1.6,14.73L6.85,14.73C6.32,14.27 6.13,13.47 6.52,12.79L11.61,4.07L9.71,0.79C9.09,-0.26 7.55,-0.26 6.93,0.79Z " /><path id="路径 8" fill-rule="evenodd" style="fill:#00DC82" transform="translate(8.226083972245576 2.678239463434668)  rotate(0 6.886958013877213 6.026091706539356)" opacity="1" d="M0.18,10.1C-0.33,10.97 0.31,12.05 1.33,12.05L12.45,12.05C13.47,12.05 14.1,10.97 13.59,10.1L8.03,0.65C7.52,-0.22 6.25,-0.22 5.74,0.65L0.18,10.1Z " /></g></g></g></g></svg>
